!!!!SEGMENT: pl-wnifc--6432-n--004_nowakowski-jozef--mazur-no-4.krn
!!!cenid: 18xx:3927
!!!COM: Nowakowski, Józef
!!!COM-rismID: pe175316
!!!CDT: 1880/09/16-1865/08/27
!!!CNT: Polish
!!!OTL: Mazur No. 4
!!!PDT: 1825
!!!AGN:
!!!SMS-siglum: PL-Wnifc
!!!SMS-shelfmark: 6432/n
!!!SMS-shelfwork: 004 W
!!!SMS-variant:
!!!SMS-altvar:
!!!NIFC-rismSourceID: 1001134716
!!!NIFC-rismChildID: 1001134735
!!!NIFC-islandoraID: nifc:212700
!!!URL-pdf-islandora: https://repozytorium.nifc.pl/islandora/object/nifc%3A212700/datastream/PDF/view
!!!URL-scan: https://polish.musicsources.pl/pl/lokalizacje/galeria/druki-muzyczne/16851 @EN{Scan on Polish Music Sources Website} @PL{Skany w portalu Dziedzictwo Muzyki Polskiej w otwartym dostępie}
!!!ONB-nifc: UWAGA: w źródle 5 Mazurów (001-005), 4 Anglezy (006-009), 2 Walce (010-011) i Fantaisie Valse (012).
!!!AIN: 2 piano
!!!key: D
**kern	**kern	**dynam
*part2	*part1	*part1
*staff2	*staff1	*
*>[A,A,B,B1,B,B2]	*>[A,A,B,B1,B,B2]	*
*>A	*>A	*
*I"Piano-forté.	*I"Piano-forté.	*
*I'	*I'	*
*Ipiano	*Ipiano	*
*ICklav	*ICklav	*
*clefF4	*clefG2	*
*k[f#c#]	*k[f#c#]	*
*D:	*D:	*
*M3/8	*M3/8	*
=1	=1	=1
*^	*	*
!	!	!	!LO:DY:t=for
8D\L	4D/	16.a/LL	f
.	.	32dd/JJk	.
8A 8F#\	.	8ff#m\L	.
8AJ 8F#\	8ryy	16ee\L	.
.	.	16dd\JJ	.
=2	=2	=2	=2
8G\L	4G/	16.cc#\LL	.
.	.	32b\JJk	.
8e 8B\	.	8.ee\L	.
8eJ 8B\	8ryy	.	.
.	.	16dd\Jk	.
=3	=3	=3	=3
8A\L	4A/	(16cc#/LL	.
.	.	16qqa/LL	.
.	.	16qqb/JJ	.
.	.	16a/	.
8g 8e 8c#\	.	16g#X/	.
.	.	16a/	.
8gJ 8e 8c#\	8ryy	16b/	.
.	.	16cc#/JJ)	.
*v	*v	*	*
=4	=4	=4
8f# 8d\	16.dd\LL	.
.	32ff#\JJk	.
4d 4F# 4D^\	4aa^\	.
=5	=5	=5
.	(32qqa/LLL	.
.	32qqb/	.
.	32qqa/	.
.	32qqg#X/JJJ)	.
!LO:TX:t=P:problem=mixed beam	!	!
8DL 8DD/	8a\L	.
8d 8A 8F#\	16gg\L	.
.	16ff#\	.
8dJ 8A 8F#\	16ee\	.
.	16dd\JJ	.
=6	=6	=6
8GL 8GG\	16.cc#\LL	.
.	32b\JJk	.
8e 8B 8G\	8.ee\L	.
8eJ 8B 8G\	.	.
.	16ff#\Jk	.
=7	=7	=7
8AL 8AA\	16gg\LL	.
.	16aM\	.
8g 8e 8A\	16g#X\	.
.	16a\	.
8gJ 8e 8A\	16b\	.
.	16cc#\JJ	.
=8	=8	=8
8f#L 8d\	(16ee\LL	.
.	16dd\JJ)	.
8D\J	4dd\	.
8r	.	.
=9:|!|:	=9:|!|:	=9:|!|:
*>B	*>B	*
!	!LO:TUP:a:problem=klamra łukowa	!
8EL 8EE\	24ee\LL	.
.	24ff#\	.
.	24ee\JJ	.
8d 8B 8G#X 8E\	16dd#X\LL	.
.	16ee\	.
8dJ 8B 8G# 8E\	16b\	.
.	16ddn\JJ	.
=10	=10	=10
8AA/	16.cc#\LL	.
.	32ee\JJk	.
4c# 4A 4E^\	8a/L	.
.	16g#X/L	.
.	16f#/JJ	.
!!LO:LB:g=original
=11	=11	=11
8E\L	16e/LL	.
.	16g#X/	.
8d 8B 8G#X\	16b/	.
.	16dd/	.
8dJ 8B 8G#\	16cc#/	.
.	16b/JJ	.
=12	=12	=12
*^	*	*
8A\L	4A/	16a/LL	.
.	.	16cc#/	.
8e 8c#\	.	16ee/	.
.	.	16aa/	.
8eJ 8c#\	8ryy	16gg#X/	.
.	.	16ff#/JJ	.
*v	*v	*	*
=13	=13	=13
8E\	8ee\L	.
4d 4B 4G#X 4E^\	(8ddd\	.
.	16ccc#\L	.
.	16bb\JJ)	.
=14	=14	=14
!	!LO:TUP:a	!
8AA\L	24aa\LL	.
.	24bb\	.
.	24ccc#\JJ	.
8c# 8A 8E\	8.ee\L	.
8c#J 8A 8E\	.	.
.	16cc#\Jk	.
=15	=15	=15
*^	*	*
8E\L	4E/	16b\LL	.
.	.	16cc#\	.
8d 8B\	.	16dd\	.
.	.	16dd#X\	.
8dJ 8B\	8ryy	16ee\	.
.	.	16g#X\JJ	.
*v	*v	*	*
=16	=16	=16
!LO:TX:t=1.°	!	!
*>B1	*>B1	*
!LO:TX:t=P:problem=mixed beam	!	!
8c#L 8A\	(16b/LL	.
.	16a/JJ)	.
8AA/J	8a/L	.
8r	16cc#/L	.
.	16dd/JJ	.
=17:|!	=17:|!	=17:|!
!LO:TX:t=2.°	!	!
*>B2	*>B2	*
!LO:TX:t=P:problem=mixed beam	!	!
8c#L 8A\	(16b/LL	.
.	16a/JJ)	.
8AA/J	4a/	.
8r	.	.
==:|!	==:|!	==:|!
*-	*-	*-
!!!system-decoration: {(*)}
!!!ENC: Berenika Jozajtis
!!!END: 2022-07-27
!!!ENC: Andrzej Kubiczek
!!!END: 2022-08-24
!!!YEC: Copyright 2022 Narodowy Instytut Fryderyka Chopina (https://polishscores.org)
!!!YEM: License CC-BY-4.0 (https://creativecommons.org/licenses/by/4.0)
